X: 1
T: Piper's Picnic, The
M: 6/8
L: 1/8
R: jig
K: Amix
|: ~A3 AGE | cde dBG | ~A3 AGE | GBA ~G3 |
~A3 AGE | cde dBG | cBA BAG |1 EFG AAG :|2 EFG AAB ||
|: cee cee | cee edc | Bgg Bgg | Bgg gfe |
cBc d2d | ~e3 a2b | age dBG |1 EFG AAB :|2 EFG Azz |]
